X:48
T:Lo Grondo De Prados Ou Lo Borobondo
M:2/4
L:1/8
N:Anim
N:La Bourre 4th edition 1929, page 56
Z:Steve Mansfield www.lesession.co.uk May 2012
K:C
z2 z G | c G E G | c2 c G/ G/ |
G G G G/ G/ | G2 z G | c G E G | c2 c G/ G/ |
c c e e/ e/ | d2 z A | A A B c | (d>e) d e |
d c B A | G2 z G/ G/ | G2 z A | G2 z A |
c c d d | e2 g2 | f f e d | c2 z2 |]
<end>
<start>
